raw/symbols/zrx.svg

<svg width="42" height="42" viewBox="0 0 42 42" fill="none" xmlns="http://www.w3.org/2000/svg">
<rect width="42" height="42" rx="21" fill="#F3F3F3"/>
<path fill-rule="evenodd" clip-rule="evenodd" d="M20.3365 35.5011C19.9806 35.4641 19.6247 35.4312 19.2688 35.389C17.3551 35.1608 15.5071 34.5493 13.835 33.5909C13.81 33.5778 13.7876 33.558 13.7388 33.525C16.6468 31.35 19.5416 29.1881 22.4523 27.013L23.3289 27.8659C23.8166 28.3431 24.307 28.815 24.7855 29.2988C24.9042 29.4174 24.9899 29.4161 25.1283 29.3449C26.5779 28.6213 27.8165 27.5362 28.7244 26.1944L28.8655 25.9861C28.9063 26.0335 28.9446 26.0718 28.9762 26.1139C29.9873 27.4612 30.997 28.8084 32.0121 30.1517C32.1004 30.2677 32.0899 30.3362 31.9963 30.4417C29.6459 33.1124 26.7247 34.7576 23.2037 35.3205C22.7607 35.3916 22.3112 35.418 21.8643 35.4668C21.805 35.4734 21.7457 35.4892 21.6877 35.5011H20.3365ZM21.6152 6.5C21.8604 6.52505 22.1069 6.55141 22.3534 6.57382C24.4309 6.77156 26.374 7.38717 28.1839 8.41934C28.2103 8.43516 28.2327 8.45362 28.2762 8.48525L19.4203 14.8378C19.303 14.7271 19.1897 14.6216 19.0776 14.5122C18.4554 13.9058 17.8306 13.3007 17.2123 12.6891C17.1134 12.5915 17.0383 12.581 16.9144 12.643C15.4391 13.371 14.1802 14.4727 13.2629 15.8383L13.1311 16.0361L9.87768 11.7017C10.2059 11.3537 10.5091 11.007 10.8374 10.6867C12.9768 8.59994 15.5171 7.27248 18.4607 6.7386C19.0275 6.63578 19.6062 6.6015 20.1796 6.53427C20.2442 6.52768 20.3088 6.51186 20.3721 6.5H21.6152ZM8.42236 13.7951L15.0069 22.4269L13.6781 23.7899C13.3473 24.1287 13.019 24.4714 12.6816 24.8049C12.5866 24.8999 12.5827 24.9724 12.6407 25.0884C13.3677 26.5639 14.469 27.823 15.8348 28.7399C15.8809 28.7689 15.927 28.7992 15.9705 28.8321C15.9785 28.8374 15.9824 28.8506 16.0061 28.8954L11.7074 32.1198C9.13684 29.9065 7.46928 27.1791 6.79962 23.8716C6.0825 20.3309 6.66252 16.9852 8.42236 13.7951ZM27.1083 19.5558L28.3184 18.2995C28.6559 17.9488 28.9881 17.5942 29.3334 17.2528C29.4415 17.146 29.4402 17.0656 29.3769 16.9391C28.6453 15.4458 27.5309 14.1731 26.1473 13.2507C26.0985 13.2177 26.051 13.1821 25.968 13.1228L30.2905 9.87994C32.7384 11.9759 34.3638 14.5597 35.1099 17.6773C36.0419 21.5687 35.2114 25.4179 33.5979 28.1282L27.1083 19.5558Z" fill="#030303"/>
</svg>

<svg xmlns="http://www.w3.org/2000/svg" width="42" height="42" fill="none"><rect width="42" height="42" fill="#F3F3F3" rx="21"/><path fill="#030303" fill-rule="evenodd" d="M20.337 35.501c-.356-.037-.712-.07-1.068-.112a14.342 14.342 0 0 1-5.434-1.798c-.025-.013-.047-.033-.096-.066 2.908-2.175 5.803-4.337 8.713-6.512l.877.853c.488.477.978.949 1.456 1.433.12.118.205.117.343.046a9.424 9.424 0 0 0 3.596-3.15l.142-.209c.04.047.079.086.11.128 1.011 1.347 2.021 2.694 3.036 4.038.088.116.078.184-.016.29-2.35 2.67-5.271 4.316-8.792 4.879-.443.07-.893.097-1.34.146-.059.006-.118.022-.176.034h-1.351ZM21.614 6.5c.245.025.492.051.738.074 2.078.198 4.021.813 5.83 1.845.027.016.05.035.093.066l-8.856 6.353c-.117-.11-.23-.216-.342-.326-.623-.606-1.247-1.211-1.866-1.823-.099-.098-.174-.108-.298-.046a9.421 9.421 0 0 0-3.651 3.195l-.132.198-3.253-4.334c.328-.348.631-.695.96-1.015 2.139-2.087 4.68-3.415 7.623-3.948.567-.103 1.145-.138 1.719-.205.064-.006.129-.022.192-.034h1.243ZM8.422 13.795l6.585 8.632-1.329 1.363c-.33.339-.659.681-.996 1.015-.095.095-.1.167-.041.283a9.404 9.404 0 0 0 3.33 3.744c.008.005.011.019.035.063l-4.299 3.225c-2.57-2.213-4.238-4.94-4.907-8.248-.718-3.541-.137-6.887 1.622-10.077Zm18.686 5.76 1.21-1.256c.338-.35.67-.705 1.015-1.046.109-.107.107-.187.044-.314a9.407 9.407 0 0 0-3.23-3.688c-.048-.033-.096-.069-.179-.128l4.323-3.243c2.447 2.096 4.073 4.68 4.819 7.797.932 3.892.101 7.74-1.512 10.451l-6.49-8.572Z" clip-rule="evenodd"/></svg>
